icons/reactrouter-dark.svg

<svg width="128" height="128" viewBox="0 0 128 128" fill="none" xmlns="http://www.w3.org/2000/svg">
<path d="M99.0399 50.315C95.3939 49.167 93.5119 49.554 89.6889 49.135C83.7789 48.49 81.4239 46.176 80.4249 40.222C79.8659 36.898 80.5259 32.031 79.0989 29.018C76.3699 23.272 69.9839 20.695 63.5689 22.166C58.1519 23.41 53.6449 28.832 53.3949 34.398C53.1099 40.753 56.7249 46.176 62.9319 48.048C65.8819 48.938 69.0149 49.386 72.0949 49.613C77.7439 50.026 78.1779 53.171 79.7049 55.76C80.6689 57.392 81.6019 59 81.6019 63.867C81.6019 68.734 80.6629 70.341 79.7059 71.973C78.1779 74.556 76.2929 76.248 70.6439 76.666C67.5639 76.894 64.4239 77.342 61.4819 78.233C55.2739 80.11 51.6589 85.526 51.9439 91.882C52.1939 97.448 56.7009 102.87 62.1179 104.114C68.5329 105.59 74.9189 103.008 77.6479 97.262C79.0809 94.249 79.8659 90.835 80.4249 87.512C81.4299 81.557 83.7849 79.243 89.6889 78.597C93.5119 78.179 97.4689 78.597 101.052 76.559C104.837 73.789 108.22 69.629 108.22 63.867C108.22 58.103 104.575 52.061 99.0399 50.315Z" fill="#F44250"/>
<path d="M38.4 77.373C30.95 77.373 24.872 71.275 24.872 63.798C24.872 56.322 30.949 50.224 38.399 50.224C45.849 50.224 51.927 56.322 51.927 63.798C51.927 71.268 45.844 77.373 38.399 77.373H38.4ZM13.48 104.96C6.04004 104.942 -0.01796 98.82 4.00087e-05 91.337C0.01804 83.867 6.11904 77.787 13.575 77.811C21.019 77.829 27.078 83.951 27.055 91.433C27.037 98.897 20.935 104.978 13.48 104.96ZM113.992 104.96C106.53 105.001 100.406 98.945 100.363 91.487C100.322 83.999 106.357 77.853 113.789 77.811C121.251 77.769 127.376 83.825 127.418 91.283C127.459 98.765 121.424 104.918 113.992 104.96Z" fill="white"/>
</svg>

<svg xmlns="http://www.w3.org/2000/svg" viewBox="0 0 128 128"><path d="M99.04 50.315c-3.646-1.148-5.528-.761-9.351-1.18-5.91-.645-8.265-2.959-9.264-8.913-.559-3.324.101-8.191-1.326-11.204-2.729-5.746-9.115-8.323-15.53-6.852-5.417 1.244-9.924 6.666-10.174 12.232-.285 6.355 3.33 11.778 9.537 13.65 2.95.89 6.083 1.338 9.163 1.565 5.649.413 6.083 3.558 7.61 6.147.964 1.632 1.897 3.24 1.897 8.107s-.939 6.474-1.896 8.106c-1.528 2.583-3.413 4.275-9.062 4.693-3.08.228-6.22.676-9.162 1.567-6.208 1.877-9.823 7.293-9.538 13.649.25 5.566 4.757 10.988 10.174 12.232 6.415 1.476 12.801-1.106 15.53-6.852 1.433-3.013 2.218-6.427 2.777-9.75 1.005-5.955 3.36-8.269 9.264-8.915 3.823-.418 7.78 0 11.363-2.038 3.785-2.77 7.168-6.93 7.168-12.692 0-5.764-3.645-11.806-9.18-13.552z" fill="#F44250"/><path d="M38.4 77.373c-7.45 0-13.528-6.098-13.528-13.575 0-7.476 6.077-13.574 13.527-13.574 7.45 0 13.528 6.098 13.528 13.574 0 7.47-6.083 13.575-13.528 13.575zM13.48 104.96C6.04 104.942-.018 98.82 0 91.337c.018-7.47 6.119-13.55 13.575-13.526 7.444.018 13.503 6.14 13.48 13.622-.018 7.464-6.12 13.545-13.575 13.527zm100.512 0c-7.462.041-13.586-6.015-13.629-13.473-.041-7.488 5.994-13.634 13.426-13.676 7.462-.042 13.587 6.014 13.629 13.472.041 7.482-5.994 13.635-13.426 13.677z" fill="#121212"/></svg>
